X:1
T:Title
%%score 1 { ( 2 4 ) | ( 3 5 ) }
L:1/8
Q:1/4=80
M:4/4
K:C
V:1 treble nm="Voice"
V:2 treble nm="Piano"
V:4 treble 
V:3 treble 
V:5 treble 
V:1
"^Andante con moto" z8 | z8 | z8 | z4 z2!p! E2 | E2 A2 A2 ^G2 | A2 c2 B2 z B | A2 c2 B2 ^G2 | %7
 A2 F2 E2 z E | A2 B2 c2 A2 | d2 d2 e2 z B |!<(! A2 c2 e2 c2!<)! |!mp!!>(! B2 B2!>)! A2 z!p! E | %12
 E2 A2 A2 ^G2 | A2 c2 B2 z B | A2 c2 B2 ^G2 | A2 F2 E2 z E | A2 B2 c2 A2 | d2 d2 e2 z B | %18
!<(! A2 c2 e2 c2!<)! |!mp!!>(! B2 B2!>)! A2 z!mp! A |!<(! A2 B2 c2 d2 | e2 d2 c2 z c | %22
 f2 e2 d2 c2!<)! |!mp! B2 c2 B2 z E |!<(! A2 B2 c2 d2 | e2 d2 c2 z c!<)! |!f! f2 e2 d2 c2 | %27
!>(! B2 B2 A2!>)! z!p! E |!<(! E2 A2 A2 ^G2 | A2 c2 B2!<)! z!mf! B | A2 c2 B2 ^G2 | %31
 A2 F2 E2 z!mp! E | A2 B2 c2 A2 | d2 d2 e2 z B |!<(! A2 c2 e2 c2!<)! |!mp!!>(! B2 B2!>)! A2 z2 | %36
[K:F][Q:1/4=80]"^Tempo I" z8 | z8 | z8 | z8 |!p! (F6 G2) | (A2 B4 c2) | (e2 A4 B2) | (A6 F2) | %44
!<(! (E2 G4 c2) | (d2 B4 A2)!<)! |!>(! (G2 E4 B2) | A6!>)!!mp! A2 |!<(! (F2 G4 A2) | %49
 (B2 c4 d2)!<)! |!>(! (e2 A4 B2) | (A6!>)!!p! F2) |!<(! (E2 G4 c2) | (d2 B4 A2)!<)! | %54
!>(! (G2 E4 B2) | A6!>)!!p! A2 |!<(! (A2 B4 c2) | (d2 e4 f2)!<)! |!>(! (f2 A4 B2) | (B6 B2)!>)! | %60
!p!!<(! (B2 ^c4 e2) | (d2 B4 A2)!<)! |!>(! (G2 E4 B2) | %63
[Q:1/4=76]"^Poco ritard." A4[Q:1/4=70] D2!>)![Q:1/4=65] z2 |] %64
V:2
!p! z (c'ba ^gafe) | (dcBA ^GABc) | (edcB) (cBA^G) | (B4 A4) |!p! z (EcA eEdB | eEcA fFdG | %6
 eEcA fFdE | eEcC BEeB | eEdD cCBC | BB,AA, ^GEeE) |!<(! (eEcC BB,EE,!<)! | %11
!>(! A,AEE, CE,EE,)!>)! |!p! z (EcA eEdB | eEcA fFdG | eEcA fFdE | eEcC BEeB | eEdD cCBC | %17
 BB,AA, ^GEeE) |!<(! (eEcC BB,EE,!<)! |!>(! A,AEE, CE,A,) z!>)! |!p!!<(! (AA,BB, cCdD | %21
 eEdD cCAA,!<)! |!>(! fFeE dDcC!>)! |!p! BB,cC BB,E) z |!p!!<(! (AA,BB, cCdD | eEdD cCAA,!<)! | %26
!f!!>(! fFeE dDcC!>)! |!>(! BB,BB, AA,E)!>)!!p! z |!p!!<(! z (EcA eEdB | eEcA fFdG!<)! | %30
!mf!!>(! eEcA fFdE!>)! |!p! eEcC BB,eE) | (eEdD cCBC | BB,AA, ^GEeE) |!<(! (eEcC BB,EE,!<)! | %35
!>(! A,AEE, CE, A)!>)! z |[K:F]!p! z (Adf afdA) | z (Beg bgeB) | z (^cea ^c'aec) | z (Adf afdA) | %40
 z (Adf afdA) | z (Beg bgeB) | z (^cea ^c'aec) | z (Adf afdA) |!<(! z (Beg bgeB) | %45
 z (Adf afdA)!<)! |!>(! z (GBe geBG) | z (FAd fdAF)!>)! |!p!!<(! z (Adf afdA) | z (Beg bgeB)!<)! | %50
!>(! z (^cea ^c'aec) | z (Adf afdA)!>)! |!p!!<(! z (Beg bgeB) | z (Adf afdA)!<)! | %54
!>(! z (GBe geBG) | z (FAd fdAF)!>)! |!p!!<(! z (_EAc _ecAE) | z (FBd fdBF)!<)! | %58
!>(! z (^Fc_e aecF)!>)! | z (GBd gdBG) |!p!!<(! z (^ceg bgec) | z (Adf afdA)!<)! | %62
!>(! z (GBe geBG) | z (FAd!>)!!p! !arpeggio![A,FAd]2) z2 |] %64
V:3
 ([A,CEA]8 | [F,A,DF]8 | [D,F,B,D]4 [E,^G,D]4 |[K:bass] [A,,E,A,]8) | (A,4 B,4 | C4 D4 | C4 B,4 | %7
 A,4 G,4 | F,4 E,4) | (D,4 E,2 D,2) | (C,4 ^G,,4) | (A,,4 E,,4) | (A,4 B,4 | C4 D4 | C4 B,4 | %15
 A,4 G,4 | F,4 E,4) | (D,4 E,2 D,2) | (C,4 ^G,,4) | (A,,4 A,,,3) z | %20
 ([F,,F,]2 [G,,G,]2 [A,,A,]2 [B,,B,]2 | [C,C]2 [B,,B,]2 [A,,A,]2 [G,,G,]2) | %22
 ([D,D]2 [C,C]2 [B,,B,]2 [A,,A,]2 | [^G,,^G,]2 [^F,,^F,]2 [E,,E,]2 E,,) z | %24
 ([F,,F,]2 [G,,G,]2 [A,,A,]2 [B,,B,]2 | [C,C]2 [B,,B,]2 [A,,A,]2 [G,,G,]2) | %26
 ([D,D]2 [C,C]2 [B,,B,]2 [A,,A,]2 | [^G,,^G,]2 [E,,E,]2 [A,,A,]2 A,,,) z | (A,4 B,4 | C4 D4 | %30
 C4 B,4 | A,4 G,4) | (F,4 E,4) | (D,4 E,2 D,2) | (C,4 ^G,,4) | (A,,4 A,,,2 A,) z | %36
[K:F][K:treble] (F6 E2) | (G6 F2) | (G6 E2) | (G4 F4) | (F6 E2) | (G6 F2) | (G6 E2) | (G4 F4) | %44
 (E6 D2) | (F6 D2) | (E6 B,2) | (E4 D4) | (F6 E2) | (G6 F2) | (G6 E2) | (G4 F4) | (E6 D2) | %53
 (F6 D2) | (E6 B,2) | (E4 D4) |[K:bass] (A,6 G,2) | (B,6 F,2) | (D6 C2) | (D4 B,4) | %60
[K:treble] (G6 E2) | (F6 D2) | (E6 B,2) | (E4 D2)[K:bass] z2 |] %64
V:4
 x8 | x8 | x8 | ([DE]4 C4) | x8 | x8 | x8 | x8 | x8 | x8 | x8 | x8 | x8 | x8 | x8 | x8 | x8 | x8 | %18
 x8 | x8 | x8 | x8 | x8 | x8 | x8 | x8 | x8 | x8 | x8 | x8 | x8 | x8 | x8 | x8 | x8 | x8 | %36
[K:F] x8 | x8 | x8 | x8 | x8 | x8 | x8 | x8 | x8 | x8 | x8 | x8 | x8 | x8 | x8 | x8 | x8 | x8 | %54
 x8 | x8 | x8 | x8 | x8 | x8 | x8 | x8 | x8 | x8 |] %64
V:5
 x8 | x8 | x8 |[K:bass] x8 | x8 | x8 | x8 | x8 | x8 | x8 | x8 | x8 | x8 | x8 | x8 | x8 | x8 | x8 | %18
 x8 | x8 | x8 | x8 | x8 | x8 | x8 | x8 | x8 | x8 | x8 | x8 | x8 | x8 | x8 | x8 | x8 | x8 | %36
[K:F][K:treble] [D,A,D]8 | [D,B,D]8 | [D,B,^C]8 | [D,A,D]8 | [D,A,D]8 | [D,B,D]8 | [D,B,^C]8 | %43
 [D,A,D]8 | [^C,G,^C]8 | [D,A,D]8 | [^C,G,^C]8 | [D,A,D]8 | [D,A,D]8 | [D,B,D]8 | [D,B,^C]8 | %51
 [D,A,D]8 | [^C,G,^C]8 | [D,A,D]8 | [^C,G,^C]8 | [D,A,D]8 |[K:bass] [F,,F,]8 | [B,,,B,,]8 | %58
 [D,,D,]8 | [G,,G,]8 |[K:treble] [E,B,^C]8 | [D,A,D]8 | [^C,G,^C]8 | [D,A,D]6[K:bass] [D,,,D,,]2 |] %64

